common/icons/svgs/location.svg

<svg xmlns="http://www.w3.org/2000/svg" width="24" height="24" viewBox="0 0 24 24">
  <g fill="none" fill-rule="evenodd" transform="translate(-168 -234)">
    <rect width="504" height="450" fill="#FFF"/>
    <g transform="translate(168 234)">
      <rect width="24" height="24"/>
      <g fill="#000" fill-rule="nonzero" transform="translate(4 1)">
        <circle cx="8" cy="8.14" r="2"/>
        <path d="M8,0.14 C3.581722,0.14 8.8817842e-16,3.721722 0,8.14 C0,11.91 5,22.14 8,22.14 C11,22.14 16,11.91 16,8.14 C16,3.721722 12.418278,0.14 8,0.14 Z M8,20.14 C6.51,19.58 2,11.63 2,8.14 C2,4.8262915 4.6862915,2.14 8,2.14 C11.3137085,2.14 14,4.8262915 14,8.14 C14,11.6 9.49,19.55 8,20.13 L8,20.14 Z"/>
      </g>
    </g>
  </g>
</svg>

<svg xmlns="http://www.w3.org/2000/svg" viewbox="0 0 24 24"><g class="icon__shape" fill-rule="nonzero" transform="translate(4 1)"><circle cx="8" cy="8.14" r="2"/><path d="M8 .14a8 8 0 0 0-8 8c0 3.77 5 14 8 14s8-10.23 8-14a8 8 0 0 0-8-8zm0 20c-1.49-.56-6-8.51-6-12a6 6 0 1 1 12 0c0 3.46-4.51 11.41-6 11.99v.01z"/></g></svg>
